src/img/header/cloud.svg

<svg width="177" height="60" viewBox="0 0 177 60" fill="none" xmlns="http://www.w3.org/2000/svg">
<path opacity="0.14" d="M166.956 34.423C159.669 30.183 150.946 28.9498 142.535 29.4522C134.124 29.9546 125.902 32.1013 117.772 34.2555C118.767 32.1139 119.04 29.7067 118.551 27.3962C118.061 25.0857 116.836 22.9968 115.06 21.4441C113.214 19.9766 110.941 19.1504 108.585 19.09C106.229 19.0296 103.917 19.7383 101.999 21.1091C98.5034 12.1799 93.2302 2.51232 83.9452 0.388497C76.9701 -1.20247 69.5618 2.28395 64.8205 7.61255C60.0793 12.9411 57.5871 19.9444 55.9079 26.9021C53.689 24.8783 50.9545 23.5091 48.0069 22.946C45.0594 22.383 42.0138 22.648 39.2073 23.7119C36.4008 24.7757 33.9429 26.5968 32.1056 28.9736C30.2684 31.3504 29.1234 34.1902 28.7975 37.1787C24.6413 33.1898 19.7556 29.4217 14.0722 28.7975C6.91469 28.0135 0.980492 33.6466 0.1067 40.5204C-0.873468 48.2621 5.1823 55.9353 11.7015 59.2847C12.1954 59.5435 12.6969 59.7795 13.2212 60.0003H164.646C167.473 58.9964 170.361 58.1727 173.292 57.5339C173.795 57.0916 174.261 56.6078 174.683 56.0876C177.426 52.7001 177.616 47.7141 175.868 43.6948C174.121 39.6755 170.724 36.6153 166.956 34.423Z" fill="url(#paint0_linear_21_352)"/>
<defs>
<linearGradient id="paint0_linear_21_352" x1="0.000325018" y1="30.0003" x2="177" y2="30.0003" gradientUnits="userSpaceOnUse">
<stop stop-color="#81CCE3"/>
<stop offset="0.23" stop-color="#68C1D7"/>
<stop offset="0.72" stop-color="#27A4B9"/>
<stop offset="1" stop-color="#0093A7"/>
</linearGradient>
</defs>
</svg>

<svg xmlns="http://www.w3.org/2000/svg" width="177" height="60" fill="none" viewBox="0 0 177 60"><path d="M166.956 34.423c-7.287-4.24-16.01-5.473-24.42-4.97-8.412.502-16.634 2.648-24.764 4.802a10.916 10.916 0 0 0-2.712-12.81 10.852 10.852 0 0 0-13.061-.336C98.503 12.18 93.23 2.512 83.945.39 76.97-1.204 69.562 2.282 64.821 7.611c-4.742 5.328-7.234 12.331-8.913 19.29a16.232 16.232 0 0 0-16.7-3.19 16.262 16.262 0 0 0-7.102 5.26 16.307 16.307 0 0 0-3.31 8.208c-4.155-3.99-9.04-7.757-14.724-8.382C6.915 28.014.98 33.648.107 40.52c-.98 7.742 5.075 15.415 11.595 18.765.493.26.995.495 1.52.715h151.424a71.05 71.05 0 0 1 8.646-2.466 11.87 11.87 0 0 0 1.39-1.446c2.744-3.388 2.934-8.374 1.186-12.393-1.747-4.02-5.144-7.08-8.912-9.272Z" fill="url(#a)" opacity=".14"/><defs><linearGradient id="a" x1="0" x2="177" y1="30" y2="30" gradientUnits="userSpaceOnUse"><stop stop-color="#81CCE3"/><stop offset=".23" stop-color="#68C1D7"/><stop offset=".72" stop-color="#27A4B9"/><stop offset="1" stop-color="#0093A7"/></linearGradient></defs></svg>
